X: 18
T: HORNPIPE: Off to California
C: C: Trad.; S: Various
C: Set Leaders: Olya, Vova
Z: Anton Zille ed., Oleg Naumov arr.; Mix O'Lydian at The Session
N: https://thesession.org/members/26966/sets/92386
R: Hornpipe
M: 4/4
L: 1/8
Q: 1/2=82
K: Gmaj
|:(3DEF|"G"G>FG>B A>GE>D|"G"G>Bd>g "C"e2 (3def|"G"g>fg>d "Em"e>dB>G|"Am"A>BA>G "D"E2 (3DEF|
"G"G>FG>B A>GE>D|"G"G>Bd>g "C"e2 (3def|"G"g>fg>d "Em"e>dB>G|"C"A>G"D"E>F "G"G2:||
|:(3def|"Em"g>fe>g "D"f>ed>f|"Em (C)"e>de>f "D (C)"e>dB>d|"G"g>fg>d "Em (G)"e>dB>G|"Am (C)"A>BA>G "D"E2 (3DEF|
"G"G>FG>B "C (G)"A>GE>D|"G (C)"G>Bd>g "C (D)"e2 (3def|"G"g>fg>d "Em (C)"e>dB>G|"Am"(3ABA "D"E>F "G"G2:||

